X:4
T: The High Part of the Low Road
C: Larry Cusick
M: C|
K: D
d=cAG FGAB | =cAdB =cAGA | d=cAG FGAB |=c2=cA BAGA |
d=cAG FGAB | =cAB=c defg | afdf ge=ce | A=ceg afge :|
d2fd adef | g2ef gfec |  d2fd adef | gfec Acec |
d2fd adef | g2ef gefg |  afdf ge=ce | A=ceg afge :|
